resources/icons/16px/grouped-bar-chart.svg

<svg xmlns="http://www.w3.org/2000/svg" viewBox="0 0 16 16">
  <path d="M10 12c.55 0 1-.45 1-1V3c0-.55-.45-1-1-1s-1 .45-1 1v8c0 .55.45 1 1 1m3 0c.55 0 1-.45 1-1V6c0-.55-.45-1-1-1s-1 .45-1 1v5c0 .55.45 1 1 1m2 1H1c-.55 0-1 .45-1 1s.45 1 1 1h14c.55 0 1-.45 1-1s-.45-1-1-1m-9-1c.55 0 1-.45 1-1V8c0-.55-.45-1-1-1s-1 .45-1 1v3c0 .55.45 1 1 1m-3 0c.55 0 1-.45 1-1V2c0-.55-.45-1-1-1s-1 .45-1 1v9c0 .55.45 1 1 1"/>
</svg>

<?xml version="1.0" encoding="utf-8"?>
<!-- Generator: Adobe Illustrator 18.0.0, SVG Export Plug-In . SVG Version: 6.00 Build 0)  -->
<svg version="1.1" id="Rounded_Rectangle_5_1_" xmlns="http://www.w3.org/2000/svg" xmlns:xlink="http://www.w3.org/1999/xlink"
	 x="0px" y="0px" viewBox="0 0 16 16" enable-background="new 0 0 16 16" xml:space="preserve">
<g id="Rounded_Rectangle_5">
	<g>
		<path fill-rule="evenodd" clip-rule="evenodd" d="M10,12c0.55,0,1-0.45,1-1V3c0-0.55-0.45-1-1-1S9,2.45,9,3v8
			C9,11.55,9.45,12,10,12z M13,12c0.55,0,1-0.45,1-1V6c0-0.55-0.45-1-1-1s-1,0.45-1,1v5C12,11.55,12.45,12,13,12z M15,13H1
			c-0.55,0-1,0.45-1,1s0.45,1,1,1h14c0.55,0,1-0.45,1-1S15.55,13,15,13z M6,12c0.55,0,1-0.45,1-1V8c0-0.55-0.45-1-1-1S5,7.45,5,8v3
			C5,11.55,5.45,12,6,12z M3,12c0.55,0,1-0.45,1-1V2c0-0.55-0.45-1-1-1S2,1.45,2,2v9C2,11.55,2.45,12,3,12z"/>
	</g>
</g>
</svg>
